X: 42756
T: White Joak
R: jig
M: 6/8
K: Dmajor
|:"D"d>dd fed|"G"dcB "D"AGA|"G"B2A Bcd|
"D"A2D DEF|"A"G>GG BAG|"A"FGE "D"D3:|
|:"A"A>AA ABc|"G"def "A"ecA|"A"A>AA ABc|
"G"def "A"edc|"G"B2d "F#m"A2d|"Em"G2d "D"FGA|
"G"B2A Bcd|"D"AFD "Bm"DEF|"G"G>GG BAG|1 "A"FGE "D"DFG:|2 "A"FGE "D"D3||

